common/src/main/resources/icons/plugins/resharper/FeaturesEnvironmentOptions/UsingDirectives.svg

<svg xmlns="http://www.w3.org/2000/svg" width="16" height="16" fill="#E57373" data-big="true" viewBox="0 0 24 24"><path d="M14 12h5.5L14 6.5zM8 5h7l6 6v10a2 2 0 0 1-2 2H8a2 2 0 0 1-2-2v-3h5v2l4-3-4-3v2H6V7a2 2 0 0 1 2-2m5.5-2H4v13h2v2H4a2 2 0 0 1-2-2V3a2 2 0 0 1 2-2h7.5z"/></svg>

<!--
  - The MIT License (MIT)
  -
  - Copyright (c) 2015-2024 Elior "Mallowigi" Boukhobza
  -
  - Permission is hereby granted, free of charge, to any person obtaining a copy
  - of this software and associated documentation files (the "Software"), to deal
  - in the Software without restriction, including without limitation the rights
  - to use, copy, modify, merge, publish, distribute, sublicense, and/or sell
  - copies of the Software, and to permit persons to whom the Software is
  - furnished to do so, subject to the following conditions:
  -
  - The above copyright notice and this permission notice shall be included in all
  - copies or substantial portions of the Software.
  -
  - THE SOFTWARE IS PROVIDED "AS IS", WITHOUT WARRANTY OF ANY KIND, EXPRESS OR
  - IMPLIED, INCLUDING BUT NOT LIMITED TO THE WARRANTIES OF MERCHANTABILITY,
  - FITNESS FOR A PARTICULAR PURPOSE AND NONINFRINGEMENT. IN NO EVENT SHALL THE
  - AUTHORS OR COPYRIGHT HOLDERS BE LIABLE FOR ANY CLAIM, DAMAGES OR OTHER
  - LIABILITY, WHETHER IN AN ACTION OF CONTRACT, TORT OR OTHERWISE, ARISING FROM,
  - OUT OF OR IN CONNECTION WITH THE SOFTWARE OR THE USE OR OTHER DEALINGS IN THE
  - SOFTWARE.
  -->


<svg data-big="true" xmlns="http://www.w3.org/2000/svg" version="1.1" width="16px" height="16px" fill="#E57373"
     viewBox="0 0 24 24">
  <path
    d="M14,12H19.5L14,6.5V12M8,5H15L21,11V21A2,2 0 0,1 19,23H8C6.89,23 6,22.1 6,21V18H11V20L15,17L11,14V16H6V7A2,2 0 0,1 8,5M13.5,3H4V16H6V18H4A2,2 0 0,1 2,16V3A2,2 0 0,1 4,1H11.5L13.5,3Z"/>
</svg>
